X: 1
T: Mary and Maurice Cooper
C: Andrew Rankine
R: strathspey
Z: 2014 John Chambers <jc:trillian.mit.edu>
S: PDF image of set for The Byron Strathspey from George Meikle 2012
M: C
L: 1/8
K: A
e>d |\
"A"c>d e>c A>A A>B | "D"A>B A>F "Bm"D>D D>F |\
"A"E>E E>F "F#m"A>A A>B | "A"c>e "Bm"d>c "E7"B2 ||
e>d |\
"A"c>d e>c A>A A>B | "D"A>B A>F "Bm"D>D D>F |\
"A"E>E E>F "F#m"A>A A>c | "Bm"B>A "E7"B<c "A"A2 |]
c>d |\
"A"e2 c>d "A#/F#"e>e e>c | "Bm"d2 f>d "E7"B>B B>d |\
"A"c>d e>c "F#m"A>A A>c | "B7"B>A G>A "E7"B2 ||
c>d |\
"A"e2 c>d "A#/F#"e>e e>c | "Bm"d2 f>d "E7"B>B B>d |\
"A"c>d e>c "F#m"A>A A>c | "B7"B>A "E7"B<c | "A"A2 |]

%%sep 1 1 500

